X:049 
T:Dream of Home (reel), A
T:Longing for Home
F:file ID: cre.5/049dream_h
B:CRE5.117 (TnÃÂÃÂÃÂÃÂºthÃÂÃÂÃÂÃÂ¡n i nDiaidh an Bhaile)
Q:180
M:4/4
R:reel
K:D
d2ed =cAGB|Addc dfag|f2ec dcAG|E2 =cE ED D2:|
fedc d2cd|eaag eaag|f2ec d2cd|eaag edde|
fedc d2cd|eaag eaag|f2ed cdef|geag efge|
"last time"d8||

%%%

